images/icon-team-builder.svg

<svg width="64" height="64" viewBox="0 0 64 64" fill="none" xmlns="http://www.w3.org/2000/svg">
<path d="M64 14.4541V56.2424H0V14.4541L3.75 10.6667H60.25L64 14.4541Z" fill="#EFEFF4"/>
<path d="M64 14.4541V56.2424H32V10.6667H60.25L64 14.4541Z" fill="#DADAE5"/>
<path d="M0 0H64V15.5152H0V0Z" fill="#474F54"/>
<path d="M32 0H64V15.5152H32V0Z" fill="#32393F"/>
<path d="M7.75781 5.81818H11.4427V9.69696H7.75781V5.81818Z" fill="#FF637B"/>
<path d="M15.1279 5.81818H18.8128V9.69696H15.1279V5.81818Z" fill="#FF637B"/>
<path d="M22.4971 5.81818H26.1819V9.69696H22.4971V5.81818Z" fill="#FF637B"/>
<path d="M45.5754 42.2453V64H34.3546V60.2898H30.6143V64H19.3936V42.2453L30.7638 32.9697H33.8686L45.5754 42.2453Z" fill="#FF637B"/>
<path d="M11.6367 22.303H53.3337V26.1818H11.6367V22.303Z" fill="#DADAE5"/>
<path d="M32 22.303H52.3636V26.1818H32V22.303Z" fill="#C9C9D3"/>
<path d="M45.5758 42.2453V64H33.9394V60.2898H32V32.9697H33.4354L45.5758 42.2453Z" fill="#E63950"/>
<path d="M30.0605 45.5758H33.9393V49.4545H30.0605V45.5758Z" fill="#EFEFF4"/>
<path d="M32 45.5758H33.9394V49.4545H32V45.5758Z" fill="#DADAE5"/>
<path d="M50.4247 45.7793L47.9728 48.4848L32.4853 34.9586L16.9978 48.4848L14.5459 45.7793L32.4853 30.0606L50.4247 45.7793Z" fill="#676E74"/>
<path d="M32 30.0606L50.4242 45.7793L47.9061 48.4848L32 34.9586L32 30.0606Z" fill="#474F54"/>
</svg>

<svg xmlns="http://www.w3.org/2000/svg" width="64" height="64"><g fill="none"><path fill="#EFEFF4" d="M64 14.454v41.788H0V14.454l3.75-3.787h56.5z"/><path fill="#DADAE5" d="M64 14.454v41.788H32V10.667h28.25z"/><path fill="#474F54" d="M0 0h64v15.515H0z"/><path fill="#32393F" d="M32 0h32v15.515H32z"/><g fill="#FF637B"><path d="M7.758 5.818h3.685v3.879H7.758zM15.128 5.818h3.685v3.879h-3.685zM22.497 5.818h3.685v3.879h-3.685z"/></g><path fill="#FF637B" d="M45.576 42.245V64H34.355v-3.71h-3.74V64H19.394V42.245l11.37-9.275h3.105z"/><path fill="#DADAE5" d="M11.636 22.303h41.697v3.879H11.636z"/><path fill="#C9C9D3" d="M32 22.303h20.364v3.879H32z"/><path fill="#E63950" d="M45.576 42.245V64H33.939v-3.71H32V32.97h1.435z"/><path fill="#EFEFF4" d="M30.061 45.576h3.878v3.879h-3.878z"/><path fill="#DADAE5" d="M32 45.576h1.939v3.879H32z"/><path fill="#676E74" d="M50.424 45.779l-2.452 2.706-15.487-13.526-15.488 13.526-2.452-2.706 17.94-15.718z"/><path fill="#474F54" d="M32 30.061l18.424 15.718-2.518 2.706L32 34.959z"/></g></svg>
